16x16/apps/org.musicbrainz.Picard.svg

<svg xmlns="http://www.w3.org/2000/svg" width="16" height="16" version="1">
 <path style="fill:#f68048" d="M 8.0417752,2e-8 V 7.8001967e-4 C 7.7160609,-0.00741318 7.505063,0.47466702 7.2227246,0.64126155 L 2.4964155,4.1017283 C 1.9469031,4.4267141 1.8573461,4.6006917 1.8574363,5.250767 L 1.6914809,11.09062 c 1.822e-4,0.649796 0.00673,0.88031 0.5560014,1.205156 l 4.8646054,3.261321 c 0.2793221,0.165264 0.5916096,0.445655 0.9033438,0.442883 0.3014468,-0.0027 0.6023764,-0.08393 0.8724807,-0.243737 L 14.112088,12.665619 C 14.661364,12.340773 14.999818,11.740416 15,11.09062 V 4.9093731 c 9e-5,-0.6500753 -0.3384,-1.250795 -0.887912,-1.5757809 L 8.8879122,0.24296868 C 8.6301917,0.0906201 8.3392355,0.00707186 8.0417752,2e-8 Z"/>
 <path style="fill:#8d259c" d="M 8,0.0015625 A 1.7755407,1.8191592 0 0 0 7.1120877,0.24296868 L 1.8879123,3.3335922 A 1.7755407,1.8191592 0 0 0 0.99999994,4.9093731 V 11.09062 a 1.7755407,1.8191592 0 0 0 0.88791236,1.574999 l 5.2241754,3.090624 A 1.7755407,1.8191592 0 0 0 8,15.998431 Z"/>
 <path style="fill:#b66bc2" d="M 5.5160501,4.7000031 3.6580074,5.6316019 2.65,11.267429 4.4251273,10.799264 5.9193571,11.9 6.9277778,6.2641728 Z M 5.1479983,6.6899722 C 4.8354642,6.6294358 4.6292104,6.3169676 4.6874162,5.9919189 4.7456219,5.6667627 5.04606,5.4522499 5.3585944,5.5127863 5.6713354,5.5733231 5.8775892,5.885899 5.8193834,6.2109476 5.7612803,6.5359963 5.4605323,6.7505094 5.1479983,6.6899722 Z"/>
 <path style="fill:#f4f4f7" d="M 10.570312 3.0234375 C 10.356267 3.0234375 10.160217 3.1347497 10.046875 3.3203125 C 9.978425 3.431484 9.9476619 3.5554208 9.9511719 3.6777344 C 9.9529719 3.7386284 9.9640019 3.799638 9.9824219 3.8574219 C 10.000912 3.9152109 10.026257 3.9707192 10.060547 4.0214844 C 10.014467 4.0750954 9.9674934 4.1224725 9.9179688 4.1640625 C 9.9179688 4.1640625 9.9160156 4.1640625 9.9160156 4.1640625 C 9.8667656 4.2053505 9.8162349 4.2425357 9.765625 4.2734375 C 9.4605326 4.4593834 9.1483214 4.5699078 9.0546875 4.5683594 C 9.0546875 4.5683594 8.5038195 4.5798651 8.2675781 4.5488281 C 7.9116471 4.5049266 7.4285071 4.3804512 6.90625 4.3984375 C 6.4047101 4.4300535 5.8476592 4.6604703 5.390625 5.4277344 C 5.346239 5.4196244 5.3006505 5.4160156 5.2558594 5.4160156 C 4.8877255 5.4160156 4.5730963 5.685974 4.5058594 6.0585938 C 4.4683474 6.2653393 4.5093317 6.4750753 4.625 6.6484375 C 4.7405665 6.8216958 4.9161852 6.9381877 5.1171875 6.9765625 C 5.1635955 6.9855025 5.2107971 6.9902344 5.2578125 6.9902344 C 5.6259464 6.9902344 5.9424276 6.7203797 6.0097656 6.3476562 C 6.0611286 6.0637453 5.9558828 5.7865852 5.7578125 5.609375 C 6.1145877 5.0318824 6.5304526 4.8457073 6.9238281 4.8164062 C 7.6171291 4.7619493 7.8234631 4.9015183 8.4570312 5.0039062 C 8.7456381 5.0006902 8.9130635 5.0663666 9.1816406 5.1035156 C 9.2615976 5.1544906 9.3375102 5.2103472 9.4101562 5.2714844 C 9.5556916 5.3939911 9.8849655 5.8555294 10 6.0175781 C 9.986257 6.0355501 9.9747166 6.0547497 9.9628906 6.0742188 C 9.9174936 6.1484188 9.887969 6.2289351 9.875 6.3105469 C 9.86861 6.3510989 9.8659675 6.3910235 9.8671875 6.4316406 C 9.8671875 6.4316406 9.8671875 6.4335938 9.8671875 6.4335938 C 9.8684675 6.4742087 9.8741725 6.5151807 9.8828125 6.5546875 C 9.8915825 6.5947875 9.9038259 6.6321738 9.9199219 6.6699219 C 9.9517019 6.7444519 9.9978366 6.8147553 10.056641 6.8730469 C 10.086291 6.9024829 10.118167 6.9276609 10.154297 6.9511719 C 10.253387 7.0158669 10.369143 7.0507813 10.486328 7.0507812 C 10.699969 7.0507812 10.895312 6.9396783 11.009766 6.7539062 C 11.055416 6.6797803 11.084596 6.5991605 11.097656 6.5175781 C 11.117236 6.3952046 11.100594 6.270697 11.052734 6.1582031 C 11.004824 6.0457091 10.924806 5.9456252 10.816406 5.875 C 10.781216 5.852212 10.743732 5.8348355 10.705078 5.8203125 C 10.666948 5.8058845 10.627931 5.7955545 10.587891 5.7890625 C 10.547611 5.7825825 10.505612 5.77979 10.464844 5.78125 C 10.424024 5.78277 10.383557 5.787547 10.34375 5.796875 C 10.188246 5.572869 9.807955 5.0595303 9.6035156 4.8984375 C 9.6035156 4.8984375 10.00055 4.6117957 10.201172 4.4628906 C 10.266262 4.4056956 10.330492 4.3410784 10.390625 4.2675781 C 10.448455 4.2853981 10.509244 4.296875 10.570312 4.296875 C 10.623542 4.296875 10.674593 4.2885626 10.724609 4.2753906 C 10.774809 4.2620826 10.824226 4.2422549 10.869141 4.2167969 C 10.959061 4.1659199 11.035125 4.0925868 11.091797 4 C 11.113887 3.964244 11.131904 3.9273136 11.146484 3.8886719 C 11.190204 3.7727471 11.200818 3.6458983 11.173828 3.5214844 C 11.155778 3.4383394 11.122632 3.360743 11.076172 3.2929688 C 11.053052 3.2592408 11.025404 3.2279067 10.996094 3.1992188 C 10.966504 3.1702587 10.935721 3.1440818 10.900391 3.1210938 C 10.851041 3.0890978 10.797554 3.063451 10.742188 3.046875 C 10.742188 3.046875 10.740234 3.046875 10.740234 3.046875 C 10.684634 3.030295 10.628753 3.0234375 10.570312 3.0234375 z M 10.570312 3.4394531 C 10.610452 3.4394531 10.649522 3.4527454 10.683594 3.4746094 C 10.707814 3.4904094 10.728031 3.5098081 10.744141 3.5332031 C 10.760001 3.5564751 10.773077 3.5827071 10.779297 3.6113281 C 10.779297 3.6113281 10.779297 3.6132812 10.779297 3.6132812 C 10.790957 3.6694223 10.78041 3.7284197 10.75 3.7773438 C 10.71967 3.8267938 10.670898 3.8584448 10.617188 3.8710938 C 10.563607 3.8833738 10.504011 3.875744 10.455078 3.84375 L 10.445312 3.8378906 C 10.398882 3.8041066 10.369365 3.7546826 10.359375 3.7011719 C 10.349475 3.6481729 10.358352 3.5923372 10.388672 3.5429688 C 10.427702 3.4791728 10.496401 3.4394531 10.570312 3.4394531 z M 12.603516 5.0039062 C 12.389773 5.0039062 12.193522 5.1152034 12.080078 5.3007812 C 11.918002 5.5640979 11.966718 5.903484 12.183594 6.1074219 C 12.185694 6.1089019 12.189006 6.1117812 12.191406 6.1132812 C 12.055011 6.5831266 11.997159 6.5684732 12.109375 6.9941406 C 12.094915 7.0076206 12.079746 7.0200302 12.066406 7.0351562 C 12.043256 7.0616642 12.021063 7.0900938 12.001953 7.1210938 C 11.969803 7.1733588 11.945768 7.2284282 11.929688 7.2851562 C 11.542938 7.8084336 11.081145 7.899332 10.566406 8.0253906 C 10.36783 8.0014306 9.9744527 8.0072319 9.7988281 8.0136719 C 9.6541432 8.0196619 9.5026888 8.0238567 9.3066406 8.0136719 C 9.1716472 8.0061855 9.0939314 7.9220032 8.9570312 7.7617188 C 8.7747337 7.5480016 8.5207055 7.2791412 8 7.2402344 L 8 7.65625 C 8.3331506 7.687398 8.4965686 7.8521007 8.6542969 8.0371094 C 8.8046445 8.2132829 8.9736431 8.4123155 9.2851562 8.4296875 C 9.4993025 8.4416675 9.6660957 8.4355727 9.8125 8.4296875 C 10.06436 8.4207075 10.495875 8.4140471 10.839844 8.5019531 C 11.103432 8.5687451 11.762841 9.506761 12.033203 9.9902344 C 12.022283 10.00521 12.011563 10.019431 12.001953 10.035156 C 11.825722 10.321669 11.898587 10.700477 12.166016 10.894531 C 12.173316 10.900531 12.181962 10.904623 12.195312 10.914062 C 12.294503 10.978613 12.408307 11.011719 12.525391 11.011719 C 12.739334 11.011719 12.935487 10.901971 13.048828 10.716797 C 13.137298 10.573929 13.164802 10.402108 13.128906 10.236328 C 13.092706 10.069934 12.99611 9.9294066 12.855469 9.8378906 C 12.756379 9.7737946 12.642373 9.7402344 12.525391 9.7402344 C 12.472001 9.7402344 12.419291 9.7470396 12.369141 9.7597656 C 12.110205 9.3243342 11.794664 8.6732021 11.335938 8.3261719 C 11.836534 8.0009487 12 7.75 12 7.75 C 12.04297 7.8576748 12.067641 7.9070668 12.166016 7.9785156 C 12.173316 7.9845056 12.181973 7.9886149 12.195312 7.9980469 C 12.294503 8.0625919 12.408307 8.0976562 12.525391 8.0976562 C 12.739335 8.0976562 12.935486 7.9859549 13.048828 7.8007812 C 13.137298 7.657764 13.164801 7.4880307 13.128906 7.3222656 C 13.092706 7.1560809 12.99611 7.0133909 12.855469 6.921875 C 12.756379 6.857779 12.642372 6.8242187 12.525391 6.8242188 C 12.512751 6.8242188 12.500921 6.8255319 12.488281 6.8261719 C 12.416491 6.4978611 12.471899 6.637001 12.568359 6.2734375 C 12.579689 6.2745575 12.592196 6.2773438 12.603516 6.2773438 C 12.81746 6.2773438 13.013611 6.1657772 13.126953 5.9804688 C 13.215423 5.8374517 13.242926 5.6678235 13.207031 5.5019531 C 13.170831 5.335664 13.074235 5.1930781 12.933594 5.1015625 C 12.834504 5.0374665 12.720497 5.0039062 12.603516 5.0039062 z M 12.603516 5.4199219 C 12.643856 5.4199219 12.682931 5.4332141 12.716797 5.4550781 C 12.765327 5.4866781 12.79996 5.5339916 12.8125 5.5917969 C 12.82483 5.6485549 12.813813 5.7080933 12.783203 5.7578125 C 12.722743 5.8566515 12.588714 5.8905667 12.490234 5.8261719 L 12.480469 5.8183594 C 12.387649 5.7511194 12.36286 5.6225463 12.423828 5.5234375 C 12.463058 5.4596415 12.529808 5.4199219 12.603516 5.4199219 z M 5.2558594 5.8320312 C 5.2558594 5.8090472 5.3001236 5.8337206 5.3222656 5.8378906 C 5.5178083 5.8753306 5.6475247 6.0684016 5.6113281 6.2695312 C 5.5754339 6.4675427 5.3857357 6.603117 5.1914062 6.5664062 C 4.9956615 6.5289663 4.866046 6.3358948 4.9023438 6.1347656 C 4.9341938 5.9591154 5.0824593 5.8320312 5.2558594 5.8320312 z M 10.486328 6.1953125 C 10.526768 6.1953125 10.566037 6.2067796 10.599609 6.2285156 C 10.624559 6.2448156 10.644306 6.2655335 10.660156 6.2890625 C 10.676016 6.3125905 10.687319 6.3377534 10.693359 6.3652344 C 10.705279 6.4202904 10.697526 6.4801381 10.666016 6.53125 C 10.626386 6.595496 10.558385 6.6347656 10.484375 6.6347656 C 10.444235 6.6347656 10.405367 6.6216254 10.371094 6.5996094 C 10.346224 6.5833854 10.326337 6.5625925 10.310547 6.5390625 C 10.294887 6.5157305 10.283384 6.4901756 10.277344 6.4628906 C 10.271344 6.4353506 10.270891 6.4052031 10.275391 6.3769531 C 10.279891 6.3487051 10.288998 6.322536 10.304688 6.296875 C 10.321777 6.269171 10.344937 6.2463366 10.373047 6.2285156 C 10.406917 6.2069876 10.445985 6.1953125 10.486328 6.1953125 z M 12.525391 7.2421875 C 12.565731 7.2421875 12.604807 7.2535266 12.638672 7.2753906 C 12.687202 7.3069906 12.721835 7.3564064 12.734375 7.4140625 C 12.746705 7.4708205 12.735788 7.528451 12.705078 7.578125 C 12.644618 7.676964 12.510588 7.7108801 12.412109 7.6464844 L 12.402344 7.640625 C 12.309524 7.573384 12.284735 7.4428587 12.345703 7.34375 C 12.384933 7.279954 12.451683 7.2421875 12.525391 7.2421875 z M 10.376953 8.9453125 C 10.159976 8.9453125 9.9569218 9.0642314 9.8457031 9.2558594 C 9.7609751 9.4020217 9.7367993 9.5733396 9.7773438 9.7382812 C 9.8128337 9.8830953 9.8943005 10.006502 10.009766 10.09375 C 9.5999758 11.0524 8.6449475 11.755061 8.3066406 11.921875 C 8.2936986 11.926375 8.2808553 11.932413 8.2695312 11.939453 C 8.1495162 11.994713 8.051464 12.012655 8 12.023438 L 8 12.439453 C 8.027805 12.436453 8.2006364 12.428424 8.4394531 12.316406 C 8.9801778 12.175335 9.1324784 12.278152 9.2910156 12.388672 C 9.3942461 12.460552 9.5213182 12.549929 9.7207031 12.560547 C 9.7308061 12.561067 9.7413371 12.5625 9.7519531 12.5625 C 9.9651894 12.5625 10.764223 12.135356 10.951172 12.0625 C 11.06684 12.178561 11.222084 12.244141 11.384766 12.244141 C 11.532485 12.244141 11.675182 12.190787 11.787109 12.091797 C 11.912483 11.981277 11.989315 11.825759 12.001953 11.65625 C 12.014593 11.486635 11.9612 11.322105 11.853516 11.193359 C 11.735726 11.051989 11.565749 10.970703 11.384766 10.970703 C 11.23725 10.970703 11.09445 11.02607 10.982422 11.125 C 10.819436 11.268766 10.745367 11.48089 10.769531 11.685547 C 10.572573 11.758327 9.8503729 12.147975 9.7421875 12.144531 C 9.6591785 12.140031 9.6107994 12.110067 9.5175781 12.044922 C 9.3990801 11.962252 9.4289247 11.886397 9.2539062 11.851562 C 9.5507591 11.564419 10.140038 10.841191 10.400391 10.216797 C 10.608774 10.209297 10.800827 10.093137 10.908203 9.9082031 C 11.082614 9.6070283 10.986272 9.2155825 10.693359 9.0351562 C 10.597409 8.9764522 10.488374 8.9453125 10.376953 8.9453125 z M 10.376953 9.3613281 C 10.415173 9.3613281 10.453363 9.3722141 10.486328 9.3925781 C 10.587436 9.4550261 10.620812 9.5914265 10.560547 9.6953125 C 10.521617 9.7625525 10.453088 9.8007812 10.376953 9.8007812 C 10.338633 9.8007812 10.300838 9.7903512 10.267578 9.7695312 C 10.218738 9.7395813 10.183872 9.6936256 10.169922 9.6367188 C 10.155972 9.5798108 10.164199 9.5192927 10.193359 9.46875 C 10.232389 9.401659 10.300819 9.3613281 10.376953 9.3613281 z M 12.525391 10.15625 C 12.565731 10.15625 12.604807 10.169546 12.638672 10.191406 C 12.687202 10.223006 12.721835 10.27032 12.734375 10.328125 C 12.746705 10.385035 12.735788 10.444422 12.705078 10.494141 C 12.644618 10.592981 12.510588 10.624942 12.412109 10.560547 L 12.402344 10.554688 C 12.309524 10.487448 12.284735 10.358979 12.345703 10.259766 L 12.345703 10.257812 C 12.384933 10.194012 12.451683 10.15625 12.525391 10.15625 z M 11.384766 11.388672 C 11.447146 11.388672 11.506027 11.415874 11.546875 11.464844 C 11.584085 11.509624 11.602006 11.56658 11.597656 11.625 C 11.593256 11.68341 11.566908 11.737053 11.523438 11.775391 C 11.473897 11.819121 11.420658 11.828125 11.384766 11.828125 C 11.321976 11.828125 11.2632 11.800323 11.222656 11.751953 C 11.146016 11.660003 11.156614 11.520342 11.246094 11.441406 C 11.295834 11.397376 11.348873 11.388672 11.384766 11.388672 z"/>
</svg>

<svg xmlns="http://www.w3.org/2000/svg" width="16" height="16" version="1"><path style="fill:#f68048" d="M8.042 0c-.326-.007-.537.475-.82.641l-4.726 3.46c-.55.326-.639.5-.639 1.15l-.166 5.84c0 .65.007.88.556 1.205l4.865 3.261c.28.165.592.446.903.443.302-.003.603-.084.873-.244l5.224-3.09c.55-.325.888-.926.888-1.575V4.909c0-.65-.338-1.25-.888-1.575L8.888.243A1.744 1.744 0 0 0 8.042 0z"/><path style="fill:#8d259c" d="M8 .002a1.776 1.82 0 0 0-.888.241l-5.224 3.09A1.776 1.82 0 0 0 1 4.91v6.182a1.776 1.82 0 0 0 .888 1.575l5.224 3.09a1.776 1.82 0 0 0 .888.242z"/><path style="fill:#b66bc2" d="m5.516 4.7-1.858.932-1.008 5.635 1.775-.468L5.92 11.9l1.009-5.636zm-.368 1.99a.598.598 0 0 1-.46-.698.577.577 0 0 1 .67-.48c.313.061.52.374.461.699a.578.578 0 0 1-.671.479z"/><path style="fill:#f4f4f7" d="M10.57 3.023a.611.611 0 0 0-.523.297.644.644 0 0 0 .014.701 1.24 1.24 0 0 1-.143.143h-.002c-.05.041-.1.079-.15.11-.305.185-.618.296-.711.294 0 0-.551.012-.787-.02-.356-.043-.84-.168-1.362-.15-.501.032-1.058.262-1.515 1.03a.769.769 0 0 0-.885.63.8.8 0 0 0 .119.59.76.76 0 0 0 .633.342.77.77 0 0 0 .752-.642.8.8 0 0 0-.252-.739c.357-.577.772-.763 1.166-.793.693-.054.9.086 1.533.188.289-.003.456.062.725.1.08.05.156.106.228.167.146.123.475.585.59.747-.014.018-.025.037-.037.056a.649.649 0 0 0-.096.358v.002a.67.67 0 0 0 .19.439.609.609 0 0 0 .953-.12.645.645 0 0 0-.305-.933.602.602 0 0 0-.24-.039.633.633 0 0 0-.121.016c-.156-.224-.536-.737-.74-.899 0 0 .397-.286.597-.435.065-.057.13-.122.19-.195.057.017.118.029.18.029a.602.602 0 0 0 .298-.08.616.616 0 0 0 .277-.328.649.649 0 0 0-.246-.768.62.62 0 0 0-.158-.074h-.002a.586.586 0 0 0-.17-.024zm0 .416c.04 0 .08.014.114.036a.225.225 0 0 1 .096.137v.001a.225.225 0 0 1-.03.164.21.21 0 0 1-.133.094.211.211 0 0 1-.162-.027l-.01-.006a.222.222 0 0 1-.057-.295.214.214 0 0 1 .182-.104zm2.034 1.565a.612.612 0 0 0-.524.297.647.647 0 0 0 .104.806l.007.006c-.136.47-.194.455-.082.881-.014.014-.03.026-.043.041a.65.65 0 0 0-.136.25c-.387.523-.849.614-1.364.74a6.54 6.54 0 0 0-.767-.011c-.145.006-.296.01-.492 0-.135-.008-.213-.092-.35-.252-.182-.214-.436-.483-.957-.522v.416c.333.031.497.196.654.381.15.176.32.375.631.393.214.012.381.006.527 0 .252-.01.684-.016 1.028.072.263.067.923 1.005 1.193 1.488l-.031.045a.648.648 0 0 0 .164.86c.007.006.016.01.03.02a.61.61 0 0 0 .854-.197.65.65 0 0 0-.195-.88.606.606 0 0 0-.486-.078c-.259-.436-.574-1.087-1.033-1.434.5-.325.664-.576.664-.576.043.108.068.157.166.229.007.006.016.01.03.019a.604.604 0 0 0 .853-.197.644.644 0 0 0 .08-.479.635.635 0 0 0-.274-.4.606.606 0 0 0-.33-.098l-.037.002c-.072-.328-.016-.189.08-.553.012.002.024.004.036.004.213 0 .41-.111.523-.297a.644.644 0 0 0 .08-.478.634.634 0 0 0-.273-.4.606.606 0 0 0-.33-.098zm0 .416c.04 0 .079.013.113.035a.217.217 0 0 1 .095.137.226.226 0 0 1-.029.166.211.211 0 0 1-.293.068l-.01-.008a.22.22 0 0 1-.056-.295.211.211 0 0 1 .18-.103zm-7.348.412c0-.023.044.002.066.006a.37.37 0 0 1 .29.432.364.364 0 0 1-.42.296.37.37 0 0 1-.29-.431.362.362 0 0 1 .354-.303zm5.23.363a.208.208 0 0 1 .174.094.225.225 0 0 1 .006.242.214.214 0 0 1-.182.104.21.21 0 0 1-.173-.096.223.223 0 0 1-.006-.242.214.214 0 0 1 .181-.102zm2.04 1.047c.04 0 .079.012.113.033a.221.221 0 0 1 .066.303.211.211 0 0 1-.293.068l-.01-.005a.223.223 0 0 1-.056-.297.21.21 0 0 1 .18-.102zm-2.149 1.703a.618.618 0 0 0-.531.31.648.648 0 0 0 .164.839c-.41.958-1.365 1.661-1.703 1.828a.189.189 0 0 0-.037.017c-.12.056-.219.074-.27.084v.416c.028-.003.2-.01.44-.123.54-.14.692-.038.851.073.103.072.23.16.43.172l.031.002c.213 0 1.012-.428 1.2-.5a.612.612 0 0 0 .835.029.644.644 0 0 0 .066-.898.609.609 0 0 0-.468-.223.609.609 0 0 0-.403.154.646.646 0 0 0-.212.56c-.197.073-.92.463-1.028.46-.083-.005-.131-.035-.224-.1-.119-.083-.09-.159-.264-.193.297-.288.886-1.01 1.146-1.635a.615.615 0 0 0 .508-.309.649.649 0 0 0-.215-.873.605.605 0 0 0-.316-.09zm0 .416a.21.21 0 0 1 .11.032.226.226 0 0 1 .074.302.209.209 0 0 1-.293.075.214.214 0 0 1-.098-.133.228.228 0 0 1 .023-.168.211.211 0 0 1 .184-.108zm2.148.795c.04 0 .08.014.114.035a.217.217 0 0 1 .095.137.225.225 0 0 1-.029.166.21.21 0 0 1-.293.067l-.01-.006a.22.22 0 0 1-.056-.295v-.002a.21.21 0 0 1 .18-.102zm-1.14 1.233a.21.21 0 0 1 .162.076.223.223 0 0 1-.024.31.21.21 0 0 1-.3-.023.225.225 0 0 1 .023-.31.205.205 0 0 1 .139-.053z"/></svg>
